X: 32160
T: Peter Ross HIBBARD
R: reel
M: 4/4
K: Aminor
|:EAcA EA A2|EAcA e3d|GABG DG G2|eGdG edcB|
ABcA EA A2|EAcA e3d|eA A2 BG G2|egdB cA A2:|
|:aged cA A2|ABcd e3d|gedc BG G2|eGdG edeg|
aged cA A2|ABcd e3d|eA A2 EG G2|egdB cA A2:|

